T: Nelly Mahony's
M: 12/8
L: 1/8
K: Dmaj
|: d2 f | ~ & |: dcB | ~ instead of: ~ |1 ede f2 e d3 d2 f :| & |2 ede f2 e d3 dcB || ~ |1  e3 efe d3 dcB :| & |2  e3 efe d3 d2 f ||
